assets/bug.svg

<?xml version="1.0" encoding="UTF-8"?>
<svg width="107px" height="106px" viewBox="0 0 107 106" version="1.1" xmlns="http://www.w3.org/2000/svg" xmlns:xlink="http://www.w3.org/1999/xlink">
    <!-- Generator: Sketch 42 (36781) - http://www.bohemiancoding.com/sketch -->
    <title>cockroach</title>
    <desc>Created with Sketch.</desc>
    <defs></defs>
    <g id="Page-1" stroke="none" stroke-width="1" fill="none" fill-rule="evenodd">
        <g id="Artboard-Copy-5" transform="translate(-190.000000, -404.000000)" fill-rule="nonzero" fill="#33373B">
            <g id="server" transform="translate(190.000000, 35.000000)">
                <g id="Group-8" transform="translate(0.000000, 45.000000)">
                    <g id="Group-2-Copy" transform="translate(0.000000, 307.000000)">
                        <g id="Path-2" transform="translate(0.000000, 17.000000)">
                            <g id="cockroach">
                                <g id="Layer_1">
                                    <path d="M106.524588,61.5428749 C105.87097,60.7608523 104.710376,60.6578227 103.927872,61.3081845 L94.280062,69.3528598 L86.2404986,59.6647251 C85.8901895,59.2448739 85.3715147,58.9671326 84.824222,58.9671326 L79.2631428,58.9671326 C79.1854356,56.6611902 78.9500161,53.8938085 78.5633601,51.5878661 L82.9803468,51.5878661 C83.9986873,51.5878661 84.5938159,50.8330116 84.5938159,49.813164 L84.5938159,39.3026726 L91.7752577,28.6983469 C92.3398883,27.8498671 92.1688071,26.7058823 91.3215478,26.1401594 C90.4734529,25.5744365 89.3586051,25.8032753 88.7933478,26.6517551 L81.316535,37.7208639 C81.1147469,38.0234744 80.9060655,38.3802121 80.9060655,38.7440553 L80.9060655,47.8978149 L77.8353772,47.8978149 C76.6346754,42.8244908 74.714764,38.0174138 72.1516793,33.9929863 C71.813068,33.461537 71.2269217,33.1390729 70.5966994,33.1390729 L67.8957471,33.1390729 L67.0718835,29.0521588 C66.5738889,26.5604286 64.6002927,23.6342182 62.4817267,22.2218964 L61.3000339,21.4421727 C67.2377424,8.75802654 86.9112456,3.68386651 87.1165848,3.63162022 C88.1033829,3.38480873 88.7039427,2.38523264 88.4564076,1.3963148 C88.2078281,0.409068836 87.2128833,-0.194898318 86.2206541,0.0573467875 C85.3228433,0.280333968 65.1158341,5.48239292 58.1992654,19.3826238 L57.5817854,18.970923 C55.2426312,17.4106397 51.7130107,17.4110577 49.3719764,18.971341 L48.7534521,19.3838777 C41.8370922,5.48322886 21.6294564,0.281587879 20.7314367,0.0581827282 C19.7337763,-0.195734258 18.7434271,0.411367672 18.4956832,1.39861364 C18.2481481,2.38774046 18.8487079,3.3894064 19.8355059,3.63621789 C20.0410541,3.68846419 39.714975,8.76722189 45.6524747,21.451786 L44.4711997,22.2394511 C42.3526336,23.6519819 40.3788286,26.5606376 39.8810429,29.0521588 L39.0567615,33.1390729 L36.3568536,33.1390729 C35.7266313,33.1390729 35.140485,33.461537 34.8018737,33.9929863 C32.2383712,38.0172048 30.3184599,42.8244908 29.1175492,47.8978149 L25.5856309,47.8978149 L25.5856309,38.7438463 C25.5856309,38.3800031 25.5927332,38.0232654 25.391154,37.7206549 L18.0726802,26.6515461 C17.507214,25.8030663 16.390695,25.5742276 15.5442712,26.1399504 C14.6970119,26.7056733 14.3673829,27.8496581 14.9320136,28.6983469 L21.8974627,39.3026726 L21.8974627,49.813164 C21.8974627,50.8328027 22.9536124,51.5878661 23.9719529,51.5878661 L28.3889396,51.5878661 C28.0022835,53.8938085 27.7668641,56.6611902 27.6891569,58.9671326 L22.1278688,58.9671326 C21.5803671,58.9671326 21.0616924,59.2455008 20.7115921,59.6653521 L12.6720288,69.335932 L3.02421852,61.3004521 C2.24171522,60.6500902 1.08028481,60.7591805 0.427502428,61.540994 C-0.224444392,62.3246884 -0.118954759,63.4908257 0.663548537,64.1430684 L11.7276354,73.3685099 C12.0725134,73.6550286 12.4911297,73.7958846 12.9070304,73.7958846 C13.435523,73.7958846 13.959629,73.5354891 14.3243515,73.0976651 L22.9914215,62.6569748 L27.6448721,62.6569748 C27.629832,64.5018959 27.6049741,65.7804672 27.5753116,67.2753382 C27.530818,69.5098077 27.4882044,71.6978824 27.4992755,73.7894061 C27.2747184,73.8092597 27.0497435,73.875508 26.8352131,73.9816724 L23.0319463,75.8309822 C22.4071552,76.14446 21.8974627,76.7866714 21.8974627,77.4857268 L21.8974627,91.3220083 L7.99810692,101.837933 C7.18322562,102.448588 7.07606487,103.605321 7.68748695,104.419736 C8.04949395,104.904373 8.63188028,105.15829 9.19295979,105.15829 C9.57752695,105.15829 9.97984979,105.037496 10.3121944,104.789013 L24.9562443,93.7199042 C25.4208164,93.3721528 25.5856309,92.8244027 25.5856309,92.2442598 L25.5856309,78.62595 L27.4863243,77.7327473 C27.8149089,84.0712676 29.1054335,89.4889993 32.9813942,93.4440437 C37.0547563,97.6022217 43.7680747,99.6235263 53.4472185,99.6235263 C63.1263623,99.6235263 69.8252673,97.6022217 73.8988383,93.4440437 C77.7750078,89.4889993 78.8998824,84.0712676 79.2282581,77.7327473 L80.9056477,78.62595 L80.9056477,92.2444688 C80.9056477,92.8246117 81.293766,93.3723618 81.7583381,93.7201131 L96.5680381,104.789222 C96.9003827,105.037914 97.317119,105.158499 97.7016861,105.158499 C98.2625567,105.158499 98.8307385,104.904582 99.1927455,104.419945 C99.8041676,103.605739 99.5311479,102.449006 98.7164755,101.838142 L84.5938159,91.3222173 L84.5938159,77.4859358 C84.5938159,76.7868804 84.3147384,76.1492667 83.6897384,75.8357889 L80.0594328,73.9908678 C79.8453202,73.8840764 79.6489633,73.8270234 79.4244061,73.8071698 C79.4354773,71.7154372 79.4072771,69.5098077 79.3625746,67.2755472 C79.3329122,65.7806762 79.3224676,64.5018959 79.3076364,62.6571838 L83.9608781,62.6571838 L92.6279481,73.0982921 C92.9926707,73.536116 93.5165677,73.7789568 94.0452692,73.7789568 C94.4611699,73.7789568 94.8799951,73.6468782 95.2246642,73.3605685 L106.288751,64.1409785 C107.071046,63.4881089 107.176326,62.3265693 106.524588,61.5428749 Z M43.496935,29.7765014 C43.8031683,28.246939 45.2140138,26.160222 46.516863,25.2918886 L51.4176398,22.0323468 C52.4963496,21.3121839 54.4582479,21.3161546 55.5350777,22.0367355 L58.0250508,23.6996306 C58.0254686,23.6996306 58.0256775,23.7008845 58.0260952,23.7015114 L60.4358545,25.3090254 C61.7387036,26.1773588 63.1495492,28.246521 63.4557824,29.7760835 L64.1346761,33.1392819 L42.8172058,33.1392819 L43.496935,29.7765014 Z M51.4015552,95.9048441 C44.0256365,95.6795581 38.6563187,94.0252315 35.5574301,90.8626589 C30.775512,85.9820191 31.0627362,77.3632615 31.2626443,67.3842195 C31.3048402,65.2728423 31.3480805,63.0649139 31.3480805,60.8471632 C31.3480805,60.2291941 31.360405,59.4283629 31.3806674,58.9671326 L51.4015552,58.9671326 L51.4015552,95.9048441 L51.4015552,95.9048441 Z M31.6292469,55.2772904 C32.3221362,48.3590452 34.2997013,41.9022392 37.3860564,36.8289151 L40.5680833,36.8289151 L66.3842164,36.8289151 L69.5670788,36.8289151 C72.6528073,41.9022392 74.6301634,48.3592541 75.3232617,55.2772904 L31.6292469,55.2772904 Z M71.1642546,90.8626589 C68.0655749,94.0254405 62.9266631,95.6797671 55.0895145,95.9048441 L55.0895145,58.9669236 L75.5716323,58.9669236 C75.5918947,59.4281539 75.6040103,60.229403 75.6040103,60.8469542 C75.6040103,63.0647049 75.5895969,65.2550785 75.6320016,67.3664557 C75.8319097,77.3454978 75.9461727,85.9820191 71.1642546,90.8626589 Z" id="Shape"></path>
                                </g>
                            </g>
                        </g>
                    </g>
                </g>
            </g>
        </g>
    </g>
</svg>

<svg id="Layer_1" data-name="Layer 1" xmlns="http://www.w3.org/2000/svg" viewBox="0 0 107 106"><defs><style>.cls-1{fill:#33373b;}</style></defs><title>bug</title><g id="Layer_1-2" data-name="Layer 1"><path id="Shape" class="cls-1" d="M106.52,61.54a1.85,1.85,0,0,0-2.6-.23l-9.65,8-8-9.69a1.88,1.88,0,0,0-1.42-.7H79.26a59.6,59.6,0,0,0-.7-7.38H83a1.6,1.6,0,0,0,1.61-1.77V39.3l7.18-10.6a1.83,1.83,0,0,0-.45-2.56,1.81,1.81,0,0,0-2.53.51L81.32,37.72a2,2,0,0,0-.41,1V47.9H77.84A45.65,45.65,0,0,0,72.15,34a1.84,1.84,0,0,0-1.55-.85H67.9l-.82-4.09a12,12,0,0,0-4.59-6.83l-1.18-.78C67.24,8.76,86.91,3.68,87.12,3.63a1.84,1.84,0,1,0-.9-3.57c-.9.22-21.1,5.43-28,19.33L57.58,19a7.78,7.78,0,0,0-8.21,0l-.62.41C41.84,5.48,21.63.28,20.73.06a1.84,1.84,0,0,0-.9,3.58c.21.05,19.88,5.13,25.82,17.82l-1.18.79a11.92,11.92,0,0,0-4.59,6.81l-.82,4.09h-2.7A1.84,1.84,0,0,0,34.8,34a45.65,45.65,0,0,0-5.68,13.9H25.59V38.74a1.77,1.77,0,0,0-.19-1L18.07,26.65a1.81,1.81,0,0,0-2.53-.51,1.87,1.87,0,0,0-.61,2.56l7,10.6V49.81A2,2,0,0,0,24,51.59h4.42a59.6,59.6,0,0,0-.7,7.38H22.13a1.88,1.88,0,0,0-1.42.7l-8,9.67L3,61.3A1.85,1.85,0,0,0,.66,64.14l11.06,9.23a1.84,1.84,0,0,0,1.18.43,1.88,1.88,0,0,0,1.42-.7L23,62.66h4.65c0,1.84,0,3.12-.07,4.62,0,2.23-.09,4.42-.08,6.51a1.87,1.87,0,0,0-.66.19L23,75.83a2,2,0,0,0-1.13,1.65V91.32L8,101.84a1.83,1.83,0,0,0-.31,2.58,1.89,1.89,0,0,0,2.62.37L25,93.72a1.75,1.75,0,0,0,.63-1.48V78.63l1.9-.89c.33,6.34,1.62,11.76,5.5,15.71,4.07,4.16,10.79,6.18,20.47,6.18s16.38-2,20.45-6.18c3.88-4,5-9.37,5.33-15.71l1.68.89V92.24a2,2,0,0,0,.85,1.48l14.81,11.07a1.92,1.92,0,0,0,1.13.37,1.81,1.81,0,0,0,1-3.32L84.59,91.32V77.49a1.75,1.75,0,0,0-.9-1.65L80.06,74a1.7,1.7,0,0,0-.64-.18c0-2.09,0-4.3-.06-6.53,0-1.49,0-2.77-.05-4.62H84L92.63,73.1a1.86,1.86,0,0,0,1.42.68,1.83,1.83,0,0,0,1.18-.42l11.06-9.22A1.85,1.85,0,0,0,106.52,61.54Zm-63-31.77a8.37,8.37,0,0,1,3-4.48L51.42,22a4.19,4.19,0,0,1,4.12,0L58,23.7h0l2.41,1.61a8.33,8.33,0,0,1,3,4.47l.68,3.36H42.82ZM51.4,95.9c-7.38-.23-12.75-1.88-15.84-5-4.78-4.88-4.49-13.5-4.29-23.48,0-2.11.09-4.32.09-6.54,0-.62,0-1.42,0-1.88h20V95.9ZM31.63,55.28a44.38,44.38,0,0,1,5.76-18.45H69.57a44.4,44.4,0,0,1,5.76,18.45ZM71.16,90.86c-3.1,3.16-8.24,4.82-16.07,5V59H75.57c0,.46,0,1.26,0,1.88,0,2.22,0,4.41,0,6.52C75.83,77.35,75.95,86,71.16,90.86Z"/></g></svg>
